X:1
T:El Carnaval de Venecia
T:El Carnaval de Venecia
T:Grande variaciones sobre un tema de Niccolò Paganini
T:Francisco Tárrega (1852 - 1909)
C:Francisco Tárrega
%%score ( 1 2 3 )
L:1/8
Q:1/4=90
M:4/4
K:A
V:1 treble-8 nm="Classical Guitar" snm="Guit."
V:2 treble-8 
V:3 treble-8 
V:1
"^Andante"{/^D} E4{/D} E4 |{/^D} E4 (6:4:6(d'/b/)g/e/(d/B/) (6:4:6G/(E/=D/)B,/(G,/E,/) | %2
 E,2- E,/G,/B,/E/ G/B/e/g/"^XII" b/e'/g'/"^XIX"b'/ |"^V" e''4 z4 |{/^D} E4{/D} E4 | %5
{/^D} [E,E]4 (e'/4=c'/4)a/4e/4(c'/4a/4)e/4=c/4 (=f/4e/4)c/4A/4(d/4c/4)A/4E/4 | %6
 E,4- E,/A,/=C/E/ (3A/=c/e/(3a/=c'/"^XII"e'/ |"^V" e''4 z4 | z [=Ge^a]3 z [^Geb]3 | %9
 z [Bgd']3 z2 z (3g/b/=f'/ | (3=f/g/d'/(3d/f/b/ (3B/d/g/(3A/B/f/ [GBe]4 | %11
"^VII" [dge']4 z2 z!-(!{/e} !-)!a |[M:9/8] a3 e3 c"^II"de | ^e2- e/f/ f6 | Bcd- d^d[=de] gfe | %15
!-(!{/a} !-)!c'"^II"ba e3 z3 | a3 e3 c"^II"de | ^e2- e/f/ f6 | Bcd- d^d[=de] gfe | %19
"^II" a3- a3 z2!-(!{/f} !-)!a |"^IX" a3- aga({c'd')} c'ba |({ab)} ag^^f g3 x2!-(!{/d} !-)!^e | %22
 f3- f^ef agf |!-(!{/a} !-)!fe^d e3 z2!-(!{/B} !-)!=d |"^II" d3- dcd({fg)} fed | %25
 d>c^B/c/ ^e>fg/a/ d'>"^VII"c'a/f/ |"^IV" f>^e^^d/e/ a>g^^f/g/!-(!{/b} !-)!d'>"^VI"c'^b/c'/ | %27
"^II" f3 Tf3 Tg2 (f/g/) |"^II" [ca]3!-(!{/c} !-)!e3"^II" cde | ^e2- e/f/ f6 | Bcd- d^d[=de] gfe | %31
!-(!{/a} !-)!c'b"^V"a e3 z3 | a3 e3"^II" cde | ^e2- e/f/ f6 | Bcd- d^d[=de] gfe | %35
 [Bd^e][Bdf][Bdg]"^II" [Aca]6 |[M:2/2] z [=Ge^a]3 z [^Geb]3 | z [Bgd']3- [Bgd']4 | %38
 (d'/4^d'/4)e'/4=f'/4(b/4^b/4)c'/4=d'/4 (g/4a/4^a/4=b/4)(^e/4f/4^^f/4g/4) | %39
 (d/4^d/4)e/4=f/4(B/4^B/4)c/4=d/4 (G/4A/4)^A/4=B/4(^E/4F/4)=G/4^G/4 (D/4^D/4E/4=F/4)(B,/4^B,/4C/4=D/4) (G,/4A,/4^A,/4=B,/4) !fermata!E,3"^VII" !arpeggio!!fermata![Bdge']4 | %40
[M:3/4][Q:1/4=170]"^Tema\nAllegro" [ce]2 | [df]4 [ce]2 | [Bd]4 [Ac]2 | [Bd]2 [GB]4- | %44
 [GB]4"^II" [Ac]2 | [Bd]4 [^B^d]2 | [df]4 [ce]2 |"^II" [Ac]6- | [Ac]4 [ce]2 | [ca]4 [ce]2 | %50
 [Bd]4"^II" [Ac]2 | [ce]2 [Bd]2 [GB]2- | [GB]4"^II" [Ac]2 | [Bd]4 [^B^d]2 | [df]4 [ce]2 | %55
"^II" [Ac]6- | [Ac]4 [ce]2 | [ce]3 [Bd]"^II" [Ac]2 | [ca]3 [eg] [df]2 | [eg]2 [GB]4- | %60
 [GB]4"^II" [Ac]2 | [Bd]4 [^B^d]2 | [df]4 [ce]2 | [ce]2"^II" [Ac]4- | [Ac]4 [ce]2 | %65
 [ce]3 [Bd]"^II" [Ac]2 | [ca]3 [eg] [df]2 | [eg]2 [GB]4- | [GB]4"^II" [Ac]2 | [Bd]4 [^B^d]2 | %70
 [ce]3 [df] [dg]2 |"^II" [ca]6- | [ca]4 |"^Variacone 1" [ce]2 | [df]4 [ce]2 | [Bd]4"^II" [Ac]2 | %76
 [Bd]2 B4- | B4"^II" [Ac]2 | [Bd]4 [^B^d]2 | [df]4 [ce]2 | [Ac]6- | [Ac]4 [ce]2 | a3 g f2 | %83
 e3 d c2 | d2 B4- | B4"^II" [Ac]2 | [Bd]4 [^B^d]2 | [df]4 [ce]2 | [Ac]4 z2 |"^II" [ca]4 |: %90
!-(!{/c'} !-)!e'2 | e'3{/e'} d' c'2 | [ec']3 b a2 | [da]3 [dg] [df]2 | [de]4 gb | %95
 [Bd]3 [de] [d^e]2 | [df]4 [Bg][db] | [ca]^d e^B cE | A4 :|"^Variacone 2" (3(!>!c'/e'/)c'/e | %100
 (3(!>!d'/f'/)d'/e (3(f/g/)f/e (3(!>!c'/e'/)c'/e | (3(!>!b/d'/)b/e (3(f/g/)f/e (3(!>!a/c'/)a/e | %102
 (3(!>!b/d'/)b/e (3(f/g/)f/e (3(f/g/)f/e | [Gd]e (3(!>!g/b/)g/e (3(!>!a/c'/)a/e | %104
 (3(!>!b/d'/)b/e (3(f/g/)f/e (3(!>!^b/^d'/)b/e | (3(!>!d'/f'/)d'/e (3(f/g/)f/e (3(!>!c'/e'/)c'/e | %106
 (3(!>!a/c'/)a/e (3(f/g/)f/e de |{/G} [Ac]e (3(f/g/)f/e (3(!>!c'/e'/)c'/e | %108
 (3(!>!d'/f'/)d'/e (3(f/g/)f/e (3(!>!c'/e'/)c'/e | (3(!>!b/d'/)b/e (3(f/g/)f/e (3(!>!a/c'/)a/e | %110
 (3(!>!b/d'/)b/e (3(f/g/)f/e (3(f/g/)f/e | [Gd]e (3(!>!g/b/)g/e (3(!>!a/c'/)a/e | %112
 (3(!>!b/d'/)b/e (3(f/g/)f/e (3(!>!^b/^d'/)b/e | (3(!>!d'/f'/)d'/e (3(f/g/)f/e (3(!>!c'/e'/)c'/e | %114
 (3(!>!a/c'/)a/e (3(f/g/)f/e!-(!{/g} (3(!-)!!>!b/c'/)b/e | [ca]4 |!-(!{/c} !-)!e2 | %117
 (3(e/f/e/)^d/e/!-(!{/f} !-)!a2 c2 | (3(c/d/c/)^B/c/!-(!{/c} !-)!e2 [ca]2 | %119
 (3([ca]/b/a/)[^Bg]/[ca]/ [fd']2 [ec']2 | [c^a]>[deb] [deb]2 [Gde]2 | %121
 (3[Bde][Bd^e][Bdf] [Bdg]2 [Bdf]2 | (3[EGB][EG^B][EGc] [EGe]2 [EGd]2 | %123
 (3[DE][D^E][DF] [D^^F]2 [DG]2 | A4!-(!{/c'} !-)!e'2 | (3(e'/f'/e'/)^d'/e'/ a'2 c'2 | %126
 (3(c'/d'/)c'/^b/c'/ e'2 a2 | (3([ca]/b/a/)[^Bg]/[ca]/ [fd']2 [ec']2 | [c^a]>[deb] [deb]2 [Gde]2 | %129
 (3[Bde][Bd^e][Bdf] [Bdg]2 [Bdf]2 | (3[EGB][EG^B][EGc] [EGe]2 [EGd]2 | %131
 (3[DE][D^E][DF] [D^^F]2 [DG]2 |"^II" A4 ||"^Variacone 3"{/f'} e'e |{/g'} f'e ce{/f'} e'e | %135
{/e'} d'e ce{/d'} c'e |{/e'} d'e de de | de{/c'} be{/d'} c'e |{/e'} d'e de{/e'} ^d'e | %139
{/g'} f'e de{/f'} e'e |{/d'} c'e ce ce | [Ac]4{/f'} e'e |{/b'} a'e ce{/f'} e'e | %143
{/e'} d'e ce{/d'} c'e |{/e'} d'e de de | de{/c'} be{/d'} c'e |{/e'} d'e de{/e'} ^d'e | %147
{/g'} f'e de{/f'} e'e |{/d'} c'e de de | [Ac]4 (3(c'/e'/)c'/e | (3(c'/e'/)c'/e ce (3(b/d'/)b/e | %151
 (3(a/c'/)a/e ce (3(g/b/)g/e | (3(f/a/)f/e Ee Fe | Ge{/c'} be{/d'} c'e |{/e'} d'e de{/f'} e'e | %155
{/g'} f'e de{/a'} g'e |{/b'} a'e de de |"^V" [cea]4 ||"^Variacone 4"!-(!{/c} !-)!e2 | %159
 f3 ^d !-(!e!-)!c' | c'3 !-(!a !-)!ec |"^II" (gf) f!-(!{/d}!-)!^e ef | G4!-(!{/c} !-)!e2 | %163
 f3 ^d e!-(!{/b}!-)!d' |"^VII" d'3 c' bc' | b"^V"a ac gf | e4!-(!{/c} !-)!e2 | %167
 f3 ^d e!-(!{/c'}!-)!e' |"^IX" e'3 c' a!-(!^e |!-)!{/g} gf ^ef cd |"^VII" Bd fb d'f' | %171
 e'!-(!{/e'}!-)!a' !-(!a'2!-)!{/a} !-(!a2 |"^VII"!-)!{/=c'} c'b b2 ^c'2 |"^V" ac' ea ce | %174
"^XII" A4 ||"^Variacone 5"!-(!{/a} !-)!e2 |!-(!{/a} !-)!f4!-(!{/a} !-)!e2 | %177
!-(!{/a} !-)!d4!-(!{/a} !-)!c2 |!-(!{/g} !-)!d2!-(!{/g} !-)!B4 | z2!-(!{/g} !-)!B2!-(!{/g} !-)!c2 | %180
!-(!{/g} !-)!d4!-(!{/g} !-)!^d2 |!-(!{/g} !-)!f4!-(!{/g} !-)!e2 |!-(!{/a} !-)!c6- | %183
 c4!-(!{/c'} !-)!e2 |!-(!{/c'} !-)!a4!-(!{/c'} !-)!e2 |!-(!{/a} !-)!d4!-(!{/a} !-)!c2 | %186
!-(!{/g} !-)!d2!-(!{/g} !-)!B4 | z2!-(!{/g} !-)!B2!-(!{/g} !-)!c2 | %188
!-(!{/g} !-)!d4!-(!{/g} !-)!^d2 |!-(!{/g} !-)!f4!-(!{/g} !-)!e2 |!-(!{/a} !-)!c6- | c4 || e'2 | %193
[Q:1/4=130] (5:4:5(e'/f'/)e'/^d'/e'/ (5:4:5(c'/=d'/)c'/^b/c'/ (5:4:5(a/=b/)a/g/a/ | %194
 (5:4:5(e/f/)e/^d/e/ (5:4:5(c/=d/)c/^B/c/ f>e | %195
 (6:4:6!fermata!e/(d'/b/)g/e/(d/ (6:4:6B/)G/(E/D/)B,/G,/ (3E,Bc | %196
 (5:4:5(d/e/)d/c/d/ (3d'c'b (3agf | (6:4:6(e/f/)e/^d/e/^e/ gf (=e/=d/)((c/B/)) | %198
 A(A/4B/4)^B/4c/4 E(E/4F/4)G/4A/4 C(C/4D/4)^D/4E/4 | z4 (5:4:5(e/f/)e/^d/e/ | %200
 a/g/f/a/ g/f/e/g/ f/e/d/f/ | e/d/c/e/ d/c/B/d/ c/B/A/c/ | %202
 B(B/4^B/4)c/4d/4 G(G/4A/4)^A/4=B/4 E(E/4F/4)^^F/4G/4 | E4 ^D2 | %204
 (6:4:6(E/F/)E/^D/E/F/ (3dcB (3AGF | (6:4:6(E/F/)E/^D/E/^E/ GF (=E/=D/)C/B,/ | %206
 A, (a/4b/4)^b/4c'/4 e(e/4f/4g/4a/4) c(c/4d/4)^d/4e/4 | A2 z2 || %208
[Q:1/4=170]"^Variacone 6""^arm. 8°" [ce]2 | [df]4 [ce]2 | [Bd]4"^II" [Ac]2 | [Bd]2 [GB]4- | %212
 [GB]4"^II" [Ac]2 | [Bd]4 [^B^d]2 | [df]4 [ce]2 |"^II" [Ac]6- | [Ac]4 [ce]2 | a4 [ce]2 | %218
 [Bd]4"^II" [Ac]2 | [ce]2 [Bd]2 [GB]2- | [GB]4"^II" [Ac]2 | [Bd]4 [ce]2 | [df]4 G2 | A2 c2 e2 | %224
 a4!-(!{/a} !-)!e'2 | e'3 ^d' =d'c' | ba c'g{/b} ae/^e/ | f4!-(!{/E} !-)!G2 | G2 A2 ^A2 | %229
 Be d'3 c' | ba ga f{/a}g | f3 e cA | E4 !-(!E2 |!-)!{/e} e3 d cB | AG FE ^DE | ^E3 F GF | %236
 G,2 [Bde]g a^a | (b/^a/)(c'/b/) (c'/b/)(e'/d'/) (f'/^e'/)(g'/f'/) | %238
 (c'/d'/)(e'/d'/) (^a/b/)(c'/b/) (^d/e/)(f/e/) | [cea]2 (e'/c'/)(a/e/) (b/a/)(e/c/) | %240
"^XII" z4!-(!{/a} !-)!e'2 |"^XII" A4 ||"^Variacone 7" (3(!>!e/f/)e/e | %243
 (3(!>!f/g/)f/e (3(e'/f'/)e'/e (3(!>!e/f/)e/e | (3(!>!d/e/)d/e (3(e'/f'/)e'/e (3(!>!c/d/)c/e | %245
 (3(!>!d/e/)d/e (3(!>!B/c/)B/e Ee | E,e (3(!>!B/c/)B/e (3(!>!c/d/)c/e | %247
 (3(!>!d/e/)d/e (3(e'/f'/)e'/e (3(!>!^d/e/)d/e | (3(!>!f/g/)f/e (3(e'/f'/)e'/e (3(!>!e/f/)e/e | %249
 (3(!>!c/d/)c/e (3(e'/f'/)e'/e{/^D} Ee |{/G} Ae ce (3(!>!e/f/)e/e | %251
 (3(!>!a/b/)a/e (3(e'/f'/)e'/e (3(!>!e/f/)e/e | (3(!>!d/e/)d/e (3(e'/f'/)e'/e (3(!>!c/d/)c/e | %253
 (3(!>!d/e/)d/e (3(!>!B/c/)B/e Ee | E,e (3(!>!B/c/)B/e (3(!>!c/d/)c/e | %255
 (3(!>!d/e/)d/e (3(e'/f'/)e'/e (3(!>!^d/e/)d/e | (3(!>!f/g/)f/e (3(e'/f'/)e'/e (3(!>!e/f/)e/e | %257
 (3(!>!c/d/)c/e (3(e'/f'/)e'/e!-(!{/[Bg]} (3(!-)![db]/c'/)b/!-)!e | [ca]4 || e'2 | %260
"^Variacone 8" A,/f'/f'/f'/ c/f'/f'/f'/ e/e'/e'/e'/ | E,/d'/d'/d'/ c/d'/d'/d'/ e/c'/c'/c'/ | %262
"^VII" B,/d'/d'/d'/ d/b/b/b/ g/b/b/b/ | E/b/b/b/ d/b/b/b/ g/c'/c'/c'/ | %264
 E/d'/d'/d'/ d/d'/d'/d'/ g/^d'/d'/d'/ | E,/f'/f'/f'/ d/f'/f'/f'/ g/e'/e'/e'/ | %266
 A,/c'/c'/c'/ c/c'/c'/c'/ e/c'/c'/c'/ | E,/c'/c'/c'/ c/c'/c'/c'/ e/e'/e'/e'/ | %268
 A,/e'/e'/e'/ c/d'/d'/d'/ e/c'/c'/c'/ | E,/c'/c'/c'/ c/b/b/b/ e/a/a/a/ | %270
"^VII" B,/a/a/a/ B/g/g/g/ d/g/g/g/ | E/g/g/g/ d/b/b/b/ g/c'/c'/c'/ | %272
 E,/d'/d'/d'/ d/d'/d'/d'/ g/^d'/d'/d'/ | E,/f'/f'/f'/ d/f'/f'/f'/ g/e'/e'/e'/ | %274
 A,/e'/e'/e'/ c/c'/c'/c'/ e/c'/c'/c'/ | E,/c'/c'/c'/ c/c'/c'/c'/ e/e'/e'/e'/ | %276
 A,/e'/e'/e'/ c/d'/d'/d'/ e/c'/c'/c'/ | E,/c'/c'/c'/ c/b/b/b/ e/a/a/a/ | %278
"^VII" B,/a/a/a/ B/g/g/g/ d/g/g/g/ | E/g/g/g/ d/b/b/b/ g/c'/c'/c'/ | %280
 E,/d'/d'/d'/ d/d'/d'/d'/ g/^d'/d'/d'/ | E,/f'/f'/f'/ d/f'/f'/f'/ g/e'/e'/e'/ | %282
 A,/a/a/a/ A/a/a/a/ c/a/a/a/ | !fermata!e4"^Final" [ce]2 || [df]4 [ce]2 | [Bd]4"^II" [Ac]2 | %286
 [Bd]2 [GB]4 | E,4 [CE]2 | [DF]4 [CE]2 | [B,D]4 [A,C]2 | [B,D]2 !fermata![G,B,]2 z2 | %291
 z2 [GB]2"^II" [Ac]2 | [Bd]2 z4 | z2 [egb]2 [eac']2 | [ebd']2 z2!f! [gd'e']2 | [gd'f']2 z2 [dg]2 | %296
"^V" !fermata![Acea]6 |] %297
V:2
 E,4 E,4 | E,4 z4 | x8 | x8 | E,4 E,4 | x8 | x8 | x8 |{/^D} [E,E]4{/D} [E,E]4 |{/^D} [E,E]4 z4 | %10
 x8 | [E,EB]4 z4 |[M:9/8] z ce z cB A3 | z Gd z dG dGE | z [EG][EG] z GG z [Bd][Ac] | %15
 z [ce]2 z cA EAc | z ce z cB A3 | z Gd z dG dGE | z [EG][EG] z GG z [Bd][Ac] | %19
 z [EAc][EAc] [EAc]3 x3 | z cc x3 z3 | z cc [ce][ce][ce] x2 z | z dd x3 z3 | %23
 z [Ac][Ac] [Ac][Ac][Ac] x3 | z [FB][FB] x3 z3 | z [FA]2 z [FA][FAc] z [Af]2 | %26
 z [GB]2 z [B^e]2 z [ce][ce] | [FAc]3 z3 d3 | z EA z cB A3 | z Gd z dG dGE | %30
 z [EG][EG] z GG z [Bd][Ac] | z [ce]2 z cA EAc | z ce z cB A3 | z Gd z dG dGE | %34
 z [EG][EG] z GG z [Bd][Ac] | E,E,E, [A,E]6 |[M:2/2]{/^D} [E,E]4{/D} [E,E]4 |{/^D} [E,E]4 z4 | x4 | %39
 x10 !fermata![E,=E]4 |[M:3/4] x2 | z2 E2 E2 | z2 E2 E2 | z2 E2 E2 | z2 E2 E2 | z2 E2 E2 | %46
 z2 E2 E2 | z2 E2 E2 | z2 E2 E2 | z2 E2 E2 | z2 E2 E2 | z2 E2 E2 | z2 E2 E2 | z2 E2 E2 | z2 E2 E2 | %55
 z2 E2 E2 | z2 E2 E2 | z2 E2 E2 | z2 E2 E2 | z2 E2 E2 | z2 E2 E2 | z2 E2 E2 | z2 E2 E2 | z2 E2 E2 | %64
 z2 E2 E2 | z2 E2 E2 | z2 E2 E2 | z2 E2 E2 | z2 E2 E2 | z2 E2 E2 | z2 E2 E2 | A,3 E C2 | A,4 | x2 | %74
 z ^D EF E2 | z ^D EF E2 | z ^D EF E2 | z ^D EF E2 | z ^D EF E2 | z ^D EF E2 | z ^D EF E2 | %81
 z ^D EF E2 | c^d fe =d2 | c^B c=B A2 | B^^F GA G2 | z ^D EF E2 | z ^D EF E2 | z ^D EF E2 | %88
 z ^D EF E2 | [A,E]4 |: x2 | z c ef e2 | z G Ad c2 | z ^D"^II" E4 | z F E2 z2 | z ^D E2 z2 | %96
 z ^D E2 z2 | A,^D E^B, CE, | A,4 :| x2 | z2 c2 z2 | z2 c2 z2 | z2 d2 d2 | x6 | z2 d2 z2 | %105
 z2 d2 z2 | z2 c2 x2 | x6 | z2 c2 z2 | z2 c2 z2 | z2 d2 d2 | x6 | z2 d2 z2 | z2 d2 z2 | %114
 z2 c2!-(!{/B} !-)!d2 | A,4 | x2 | x6 | x6 | A,6 | E,6 | (3E,E,E, E,2 E,2 | (3E,E,E, E,2 E,2 | %123
 (3E,E,E, E,2 E,2 | [A,CE]4 z2 | A,6 | A,6 | A,6 | E,6 | (3E,E,E, E,2 E,2 | (3E,E,E, E,2 E,2 | %131
 (3E,E,E, E,2 E,2 | [A,CE]4 || x2 | x2 [A,EA]2 z2 | z2 [A,EA]2 z2 | z2 [E,EG]2 [E,EG]2 | %137
 [E,EG]2 z4 | z2 [E,EG]2 z2 | z2 [E,EG]2 z2 | z2 [A,EA]2 [E,EG]2 | [A,E]4 z2 | z2 [A,EA]2 z2 | %143
 z2 [A,EA]2 z2 | z2 [E,EG]2 [E,EG]2 | [E,EG]2 z4 | z2 [E,EG]2 z2 | z2 [E,EG]2 z2 | %148
 z2 [A,EA]2 [E,EA]2 | [A,E]4 z2 | z2 c2 z2 | z2 c2 z2 | z2 E2 F2 | G2 z4 | z2 [E,EG]2 z2 | %155
 z2 [E,EG]2 z2 | z2 [A,EA]2 [E,EA]2 | [A,EA]4 || z2 | A,4 E,2 | A,6 | B,2 z2 E,2 | B,4 E,2 | %163
 E,4 E,2 | B,4 x2 | A,4 E,2 | A,4 E,2 | A,4 E,2 | C6 | D6 | B,6 | [Aa]2 z4 | [=Fd]2 [Edg]4 | %173
 [A,ce]6 | x4 || x2 | z2 [A,Ac]2 z2 | z2"^II" [CEA]2 z2 | z4 [E,EG]2 | [E,EG]2 z2 z2 | %180
 z2 [E,EG]2 z2 | z2 [E,EG]2 z2 | z2"^II" [A,EA]2 [A,EA]2 | [A,EA]4 z2 | z2 [ce]2 z2 | z2 [CE]2 z2 | %186
 z4 [E,EG]2 | [E,EG]2 z2 z2 | z2 [E,EG]2 z2 | z2 [E,EG]2 z2 | z2"^II" [A,EA]2 [A,EA]2 | [A,EA]4 || %192
 x2 | A,6 | A,6 | E,2 z2 E,2 | x6 | x6 | A,4 z2 | A,4 z2 | A,6 | A,6 | E,6 | E,2 [GBe]2 z2 | E,6 | %205
 E,6 | x6 | A,2 z2 || x2 | A,2 E2 E2 | A,2 E2 E2 | E,2 E2 E2 | E,2 E2 E2 | E,2 E2 E2 | E,2 E2 E2 | %215
 A,2 E2 E2 | A,2 E2 E2 | A,2 E2 E2 | A,2 E2 E2 | E,2 E2 E2 | E,2 E2 E2 | E,2 E2 E2 | E,2 E4 | A,6 | %224
 A,6 | A,4 E,2 | [A,c]4 E,2 | B,4 z2 | [B,D]4 E,2 | G,2 z2 E,2 | [Gde]2 z4 | A,6 | E,2 [Ace]2 E,2 | %233
 A,4 E,2 | A,4 E,2 | E,6 | x6 | E,6 | x6 | A,6 | A4 z2 | x4 || x2 | A,6 | A,6 | E,6 | E,2 z4 | %247
 E,6 | E,6 | A,4 E,2 | A,6 | A,6 | A,6 | E,6 | E,2 z4 | E,6 | E,6 | A,4 [E,d]2 | A,4 || x2 | %260
 A,2 c2 e2 | E,2 c2 e2 | B,2 d2 g2 | E2 d2 g2 | E2 d2 g2 | E,2 d2 g2 | A,2 c2 e2 | E,2 c2 e2 | %268
 A,2 c2 e2 | E,2 c2 e2 | B,2 B2 d2 | E2 d2 g2 | E,2 d2 g2 | E,2 d2 g2 | A,2 c2 e2 | E,2 c2 e2 | %276
 A,2 c2 e2 | E,2 c2 e2 | B,2 B2 d2 | E2 d2 g2 | E,2 d2 g2 | E,2 d2 g2 | A,2 A2 c2 | x6 || %284
 x2!-(!{/g} !-)!a2 x2 | x2!-(!{/g} !-)!a2 x2 | z4{/^D} E2 | x6 | z2!-(!{/G} !-)!A4 | %289
 z2!-(!{/G} !-)!A4 | x6 | z2 E2 E2 | E2 z4 | x6 | x6 | z4 [E,E]2 | [A,E]6 |] %297
V:3
 x8 | x8 | x8 | x8 | x8 | x8 | x8 | x8 | x8 | x8 | x8 | x8 |[M:9/8] A,6 z3 | E,6 z3 | E,3 B,3 E,3 | %15
 A,3 A,3 z3 | A,6 z3 | E,6 z3 | E,3 B,3 E,3 | A,3 x6 | F3 c3 x2 z | C6 C2 x | D3 d3 x3 | A,6 A,3 | %24
 B,3 [FB]3 x3 | F,3 F,3 z3 | C3 C3 z3 | x9 | A,6 x3 | E,6 z3 | E,3 B,3 E,3 | A,3 A,3 z3 | A,6 z3 | %33
 E,6 z3 | E,3 B,3 E,3 | x9 |[M:2/2] x8 | x8 | x4 | x14 |[M:3/4] x2 | A,6 | A,6 | E,6 | E,6 | E,6 | %46
 E,6 | A,6 | A,6 | A,6 | A,6 | E,6 | E,6 | E,6 | E,6 | A,6 | A,6 | A,6 | A,6 | E,6 | E,6 | E,6 | %62
 E,6 | A,6 | A,6 | A,6 | A,6 | E,6 | E,6 | E,6 | E,6 | x6 | x4 | x2 | A,6 | A,6 | E,6 | E,6 | E,6 | %79
 E,6 | A,6 | A,6 | A,6 | A,6 | E,6 | E,6 | E,6 | E,6 | A,6 | x4 |: x2 | A,6 | A,6 | E,6 | G,6 | %95
 E,6 | E,6 | x6 | x4 :| x2 | A,6 | A,6 | E,6 | E,6 | E,6 | E,6 | A,4{/^D} [E,E]2 | A,6 | A,6 | %109
 A,6 | E,6 | E,6 | E,6 | E,6 | A,6 | x4 | x2 | A,6 | A,6 | x6 | x6 | x6 | x6 | x6 | x6 | x6 | x6 | %127
 x6 | x6 | x6 | x6 | x6 | x4 || x2 | x6 | x6 | x6 | x6 | x6 | x6 | x6 | x6 | x6 | x6 | x6 | x6 | %146
 x6 | x6 | x6 | x6 | x6 | x6 | x6 | x6 | x6 | x6 | x6 | x4 || x2 | x2 [Ac]2 x2 | x2 [ce]2 x2 | %161
 x2 [Bd]2 x2 | x2 [Bde]2 x2 | x2"^IV" [GB]2 x2 | x2 [dg]2 [Edg]2 | x2 [ce]2 x2 | x2 [Ac]2 x2 | %167
 x2 [Ac]2 x2 | x2 [ce]2 [ce]2 | x6 | x6 | E,6 | x6 | x6 | x4 || x2 | x6 | x6 | x6 | x6 | x6 | x6 | %182
 x6 | x6 | x6 | x6 | x6 | x6 | x6 | x6 | x6 | x4 || x2 | x6 | x6 | x6 | x6 | x6 | x6 | x6 | x6 | %201
 x6 | x6 | x6 | x6 | x6 | x6 | x4 || x2 | x6 | x6 | x6 | x6 | x6 | x6 | x6 | x6 | x6 | x6 | x6 | %220
 x6 | x6 | x6 | x6 | x6 | z2 [ce]4 | x6 | z2 [Gd]2 x2 | x6 | z2 [eg]4 | x6 | z2 [Ac]2 x2 | x6 | %233
 z2 [ec']2 x2 | x6 | z2 [Gd]2 x2 | x6 | x6 | x6 | x6 | x6 | x4 || x2 | x6 | x6 | x6 | x6 | x6 | %248
 x6 | x6 | x6 | x6 | x6 | x6 | x6 | x6 | x6 | x6 | x4 || x2 | x6 | x6 | x6 | x6 | x6 | x6 | x6 | %267
 x6 | x6 | x6 | x6 | x6 | x6 | x6 | x6 | x6 | x6 | x6 | x6 | x6 | x6 | x6 | x6 | x6 || x6 | x6 | %286
 x6 | x6 | x6 | x6 | x6 | x6 | x6 | x6 | x6 | x6 | x6 |] %297

